X: 21124
T: Karis Pers Polska
R: waltz
M: 3/4
K: Dmajor
|:A2 A>B A>G|G2 F>D F>A|d2 d>e d>c|c>B B4|
e2 e>f e>d|d2 c>A c>e|a2 a>ba>g|g>f f4|
A2 A>B A>G|G2 F>D F>A|d2 d>e d>c|c>B B4|
e2 e>f e>d|d2 c>A c>e|a2 a>g f>e|d z d4:|
|:g2 e>g e>g|f>e d>c d>f|e>d c>A B>c|d>e f>g a2|
g2 e>g e>g|f>e d>c d>f|e>d c>A B>c||d z d4:|

